X: 1
T: String Quartet in D Major opus 33 no 6 mvt 4
C: Franz Joseph Haydn
%%abc-version 2.0
%%abcx-abcm2ps-target-version 5.9.1 (29 Sep 2008)
%%abc-creator hum2abc beta
%%abcx-conversion-date 2021/02/14 14:38:20
%%abc-copyright Copyright (c) 1994, 2000 Center for Computer Assisted Research in the Humanities
%%abc-edited-by Frances Bennion
%%abcx-initial-encoding-date 1997/04/15
%%gracespace 0 6 6
%%humdrum-veritas 16221064
%%humdrum-veritas-data 1306894821
%%linebreak <none>
%%barnumbers 0
L: 1/8
M: 2/4
N: Derived from op33n6-04.krn
Q: "Finale: Allegretto"
%%staves [1 2 3 4]
V: 1
V: 2
V: 3 clef=alto
V: 4 clef=bass
K: D
[V:1]z3 d [I:setbarnb1]|
[V:2]z3 z |
[V:3]z3 z |
[V:4]z3 z |
[V:1]D3/F//A// GE |
[V:2]z3 E |
[V:3]z3 A, |
[V:4]zD, E,C, |
[V:1]FG EA |
[V:2]DE CE |
[V:3]A,B, A,A, |
[V:4]D,G,, A,,C, |
[V:1]FB A^G |
[V:2]FD CB, |
[V:3]A,F ED |
[V:4]D,B,, E,E, |
[V:1]^G2 Ae |
[V:2]B,2 A,z |
[V:3]D2 Cz |
[V:4]A,,A, A,,z |
[V:1](3:2:2A,-A,/8C//E//G//F B|
[V:2]zE Fz |
[V:3]zA, A,z |
[V:4]zC, D,z |
[V:1]E3/F//G// Ad |
[V:2]zE FD |
[V:3]zC DA, |
[V:4]zG, F,F, |
[V:1]Be dc |
[V:2]BG FE |
[V:3]B,B, A,A, |
[V:4]G,E, A,A, |
[V:1]c2 da |
[V:2]E2 Fz |
[V:3]D,2 zz |
[V:4]D,D D,z |
[V:1]A3/B//=c// Bb |
[V:2]zG Fz |
[V:3]zE ^Dz |
[V:4]zE ^Dz |
[V:1]F3/G//A// Gg |
[V:2]zB,2 E |
[V:3]zF EA, |
[V:4]z^D, E,C, |
[V:1]fd BG |
[V:2]DD DD |
[V:3]A,A, B,B, |
[V:4]D,F, G,B, |
[V:1]F2 Ee |
[V:2]D2 Cz |
[V:3]A,2 z2 |
[V:4]A,2 A,,z |
[V:1](3:2:2A,-A,/8C//E//G//F B|
[V:2]zE Dz |
[V:3]zA, A,z |
[V:4]zC, D,z |
[V:1]E3/F//G// Ad' |
[V:2]zC D[AD] |
[V:3]zE FD |
[V:4]zG, F,F, |
[V:1]bg ec |
[V:2][BD]z2 G |
[V:3]D2 zG/E/ |
[V:4]G,2 zA, |
[V:1]d2 zz |
[V:2]F2 zz |
[V:3]D2 zz |
[V:4]D,2 zA, |
[V:1]zA dc |
[V:2]z3 _B |
[V:3]z4 |
[V:4]=F3 G |
[V:1]de =fg |
[V:2]A3 d |
[V:3]zA, A_B |
[V:4]=FC D_B, |
[V:1]=fe ez |
[V:2]dc cG |
[V:3]A3 D |
[V:4]A,3 _B,, |
[V:1]z4 |
[V:2]=FE Ez |
[V:3]DC Cz |
[V:4]A,,2 zA, |
[V:1]zc _ba |
[V:2]z3 A, |
[V:3]z4 |
[V:4]G3 =F |
[V:1]g=f ed |
[V:2]A2 G=F |
[V:3]zD G,^G, |
[V:4]CD G,^G, |
[V:1]ce ez |
[V:2]EC CD |
[V:3]A,2 z=F, |
[V:4]A,2 z^G,, |
[V:1]z3 z |
[V:2]CE Ez |
[V:3]E,C, C,z |
[V:4]A,,2 zA, |
[V:1]z=c =c'a |
[V:2]z3 _e |
[V:3]z3 =c |
[V:4]A3 F |
[V:1]a_b ba |
[V:2]_ed de |
[V:3]=c_B Bc |
[V:4]FG Gz |
[V:1]ag gd' |
[V:2]_ed d=f |
[V:3]=c_B B=B |
[V:4]z3 ^G |
[V:1]d'c' c'_b |
[V:2]=fe eg |
[V:3]BA Az |
[V:4]^GA Az |
[V:1]cz2 a |
[V:2]ez2 =f |
[V:3]z_B, Gz |
[V:4]zG, Ez |
[V:1]dz2 =f |
[V:2]=Fz2 A |
[V:3]zA, =FD |
[V:4]z=F, DD, |
[V:1]_eg dc |
[V:2]_B2 =FE |
[V:3]G,2 A,A, |
[V:4]G,2 A,A, |
[V:1]d2 zd |
[V:2]D2 zz |
[V:3]D,2 zz |
[V:4]D,D D,z |
[V:1]D3/F//A// GE |
[V:2]z3 E |
[V:3]z3 A, |
[V:4]zD, E,C, |
[V:1]FG EA |
[V:2]DE CE |
[V:3]A,B, A,A, |
[V:4]D,G,, A,,C, |
[V:1]FB A^G |
[V:2]FD CB, |
[V:3]A,F ED |
[V:4]D,B,, E,E, |
[V:1]^G2 Ae |
[V:2]B,2 A,z |
[V:3]D2 Cz |
[V:4]A,,A, A,,z |
[V:1](3:2:2A,-A,/8C//E//G//F B|
[V:2]zE Fz |
[V:3]zA, A,z |
[V:4]zC, D,z |
[V:1]E3/F//G// Ad |
[V:2]zE FD |
[V:3]zC DA, |
[V:4]zG, F,F, |
[V:1]Be dc |
[V:2]BG FE |
[V:3]B,B, A,A, |
[V:4]G,E, A,A, |
[V:1]c2 dd |
[V:2]E2 Fz |
[V:3]D,2 z2 |
[V:4]D,D D,z |
[V:1]D(3D/F/A/ (3G/E/C/(3A,/E/G/ |
[V:2]z3 E |
[V:3]z3 A, |
[V:4]zD, E,C, |
[V:1]F(3G/A/G/ E(3A/B/A/ |
[V:2]DE CE |
[V:3]A,B, A,A, |
[V:4]D,G,, A,,C, |
[V:1](3F/^G/A/(3B/c/d/ (3c/e/c/(3d/B/G/ |
[V:2]FD EB, |
[V:3]A,F ED |
[V:4]D,B,, E,E, |
[V:1]^G2 Ae |
[V:2]B,2 A,z |
[V:3]D2 Cz |
[V:4]A,,A, A,,z |
[V:1](3A,/C/D/(3E/F/G/ FB |
[V:2]zE Fz |
[V:3]zA, A,z |
[V:4]zC, D,z |
[V:1](3C/D/E/(3F/G/^G/ (3A/B/c/(3d/e/f/ |
[V:2]zE FD |
[V:3]zC DA, |
[V:4]zG, F,F, |
[V:1](3B/f/g/(3b/g/e/ (3f/a/f/(3g/e/c/ |
[V:2]BG AE |
[V:3]G,E DA, |
[V:4]G,E, A,A, |
[V:1]d2 za |
[V:2]F2 z2 |
[V:3]D,2 z2 |
[V:4]D,D D,z |
[V:1]A3/B//=c// Bb |
[V:2]zG Fz |
[V:3]zE ^Dz |
[V:4]zE ^Dz |
[V:1]F3/G//A// Gg |
[V:2]zB,2 E |
[V:3]zF EA, |
[V:4]z^D, E,C, |
[V:1]fd BG |
[V:2]DD DD |
[V:3]A,A, B,B, |
[V:4]D,F, G,B, |
[V:1]F2 Ee |
[V:2]D2 Cz |
[V:3]A,2 z2 |
[V:4]A,2 A,,z |
[V:1](3:2:2A,-A,/8C//E//G//F B|
[V:2]zE Dz |
[V:3]zA, A,z |
[V:4]zC, D,z |
[V:1]E3/F//G// Ad' |
[V:2]zC D[AD] |
[V:3]zE FD |
[V:4]zG, F,F, |
[V:1]bg ec |
[V:2][B2D2] zG |
[V:3]D2 zG/E/ |
[V:4]G,2 zA, |
[V:1]d2 za |
[V:2]F2 z2 |
[V:3]D2 z2 |
[V:4]D,2 z2 |
[V:1]A3/B//=c// (3B/^c/^d/(3e/f/g/ |
[V:2]zG Fz |
[V:3]zE ^Dz |
[V:4]zE ^Dz |
[V:1](3a/b/a/(3g/f/a/ (3g/b/a/(3g/f/e/ |
[V:2]zB,2 E |
[V:3]zF EA, |
[V:4]z^D, E,C, |
[V:1](3f/a/g/(3f/e/d/ (3c/B/A/(3G/F/E/ |
[V:2]DD DD |
[V:3]A,A, B,B, |
[V:4]D,F, G,B, |
[V:1]D2 Ce |
[V:2]F2 Ez |
[V:3]A,2 z2 |
[V:4]A,2 A,,z |
[V:1](3A,/C/D/(3E/F/G/ FB |
[V:2]zE Dz |
[V:3]zA, A,z |
[V:4]zC, D,z |
[V:1](3C/D/E/(3F/G/^G/ (3A/B/c/(3d/e/f/ |
[V:2]zC A,[AD] |
[V:3]zE FD |
[V:4]zG, F,F, |
[V:1](3B/f/g/(3b/g/e/ (3f/a/f/(3g/e/c/ |
[V:2][B2D2] zG |
[V:3]D2 zE |
[V:4]G,2 zA, |
[V:1]d2 z2 |
[V:2]F2 z2 |
[V:3]D2 z2 |
[V:4]D,2 zA, |
[V:1]z3 A |
[V:2]zA dc |
[V:3]z4 |
[V:4]=F3 G |
[V:1]a3 d' |
[V:2]de =fg |
[V:3]zA, A_B |
[V:4]=FC D_B, |
[V:1]d'c' c'=f' |
[V:2]=fe ed |
[V:3]A3 ^G |
[V:4]A,2 z2 |
[V:1]=f'e' e'z |
[V:2]dc cz |
[V:3]^GA Az |
[V:4]z3 A, |
[V:1]z3 a |
[V:2]zc _ba |
[V:3]z4 |
[V:4]G3 =F |
[V:1]a'2 g'=f' |
[V:2]g=f ed |
[V:3]z4 |
[V:4]CD G,^G, |
[V:1]e'a' a'=f' |
[V:2]c3 d |
[V:3]zA, A^G |
[V:4]A,2 z2 |
[V:1]e'c' az |
[V:2]c2 zz |
[V:3]A2 zz |
[V:4]z3 A, |
[V:1]za =c'_e' |
[V:2]z=c _ea |
[V:3]z3 =c |
[V:4]A3 F |
[V:1]_e'd' d'=c' |
[V:2]a_b bf |
[V:3]=c_B B_e |
[V:4]FG GA |
[V:1]=c'_b b=f' |
[V:2]fg gd' |
[V:3]_ed d^G |
[V:4]A_B Bz |
[V:1]=f'e' e'g' |
[V:2]d'c' c'z |
[V:3]^GA Az |
[V:4]z4 |
[V:1]c'2 za |
[V:2]ze ez |
[V:3]z_B Bz |
[V:4]zG Gz |
[V:1]=f'z2 f'- |
[V:2]zd dd |
[V:3]zA AA |
[V:4]z=F FD |
[V:1]f'e' g'c' |
[V:2]_B2 ze |
[V:3]_B2 zG |
[V:4]G2 zA, |
[V:1]d'2 zd |
[V:2]d2 zz |
[V:3]=F2 zz |
[V:4]D2 zz |
[V:1]D3/F//A// GE |
[V:2]z3 E |
[V:3]z3 A, |
[V:4]zD, E,C, |
[V:1]FG EA |
[V:2]DE CE |
[V:3]A,B, A,A, |
[V:4]D,G,, A,,C, |
[V:1]FB A^G |
[V:2]FD CB, |
[V:3]A,F ED |
[V:4]D,B,, E,E, |
[V:1]^G2 Ae |
[V:2]B,2 A,z |
[V:3]D2 Cz |
[V:4]A,,A, A,,z |
[V:1](3:2:2A,-A,/8C//E//G//F B|
[V:2]zE Dz |
[V:3]zA, A,z |
[V:4]zC, D,z |
[V:1]E3/F//G// Ad |
[V:2]zE FD |
[V:3]zC DA, |
[V:4]zG, F,F, |
[V:1]Be dc |
[V:2]BG FE |
[V:3]B,B, A,A, |
[V:4]G,E, A,A, |
[V:1]c2 dd' |
[V:2]E2 Fz |
[V:3]D,2 z2 |
[V:4]D,D D,z |
[V:1]d3/f//a// g/g/z/e/ |
[V:2]z3 E |
[V:3]z3 A, |
[V:4]zD, E,C, |
[V:1]f/f/z/g/ e/e/z/a/ |
[V:2]DE CE |
[V:3]A,B, A,A, |
[V:4]D,G,, A,,C, |
[V:1]f/f/z/d'/ z/c'/z/^g/ |
[V:2]FF EB, |
[V:3]A,D ED |
[V:4]D,B,, E,E, |
[V:1]^g2 ae' |
[V:2]B,2 A,z |
[V:3]D2 Cz |
[V:4]A,,A, A,,z |
[V:1]e3/f//g// f/f/z/b/ |
[V:2]zA, Fz |
[V:3]zG/E/ Dz |
[V:4]zC, D,D,, |
[V:1]e/e/z/a/ d/d/z/d'/ |
[V:2]zc zd |
[V:3]zA zA |
[V:4]zG, zF, |
[V:1]z/b/z/g/ z/f/a/c/ |
[V:2]DB AG |
[V:3]BE AA, |
[V:4]G,E, A,A,, |
[V:1]e2 da |
[V:2]G2 Fz |
[V:3]DA, D,z |
[V:4]D,A,, D,,z |
[V:1]A3/B//=c// Bb |
[V:2]zG Fz |
[V:3]zE ^Dz |
[V:4]zE ^Dz |
[V:1]F3/G//A// Gg |
[V:2]zB,2 E |
[V:3]zF EA, |
[V:4]z^D, E,C, |
[V:1]fd BG |
[V:2]DD DD |
[V:3]A,A, B,B, |
[V:4]D,F, G,B, |
[V:1]F2 Ee |
[V:2]D2 Cz |
[V:3]A,2 z2 |
[V:4]A,2 A,,z |
[V:1]A,A,//C//E//G// FB |
[V:2]zE Dz |
[V:3]zA, A,z |
[V:4]zC, D,z |
[V:1]E3/F//G// Ad' |
[V:2]zC D[AD] |
[V:3]zE FD |
[V:4]zG, F,F, |
[V:1]bg ec |
[V:2][B2D2] zG |
[V:3]D2 zG/E/ |
[V:4]G,2 zA, |
[V:1]d2 za |
[V:2]F2 z2 |
[V:3]D2 z2 |
[V:4]D,2 z2 |
[V:1]A3/B//=c// B/B/z/b/ |
[V:2]zG Fz |
[V:3]zE ^Dz |
[V:4]zE ^DB, |
[V:1]f/f/z/a/ g/g/z/g'/ |
[V:2]zB, B,e |
[V:3]zF EA, |
[V:4]z^D, E,C, |
[V:1]z/f'/z/d'/ z/b/z/g/ |
[V:2]dd dd |
[V:3]A,A, B,B |
[V:4]D,F, G,B, |
[V:1]f3/g//f// ee' |
[V:2]d2 cz |
[V:3]A2 z2 |
[V:4]A,2 A,,z |
[V:1]e3/f//g// f/f/z/b/ |
[V:2]zA Az |
[V:3]zE Dz |
[V:4]zC DD, |
[V:1]e/e/z/a/ d/d/z/B/ |
[V:2]zc zd |
[V:3]zA zA |
[V:4]zG, zF, |
[V:1]E/E/z/A/ D/D/z |
[V:2]zC zD |
[V:3]zA, zA, |
[V:4]zG,, zF,, |
[V:1]z3 d' |
[V:2]z3 [AD] |
[V:3]z3 F |
[V:4]z3 F, |
[V:1]bg e[cE] |
[V:2][B2D2] z[EA] |
[V:3]G2 z[A,E] |
[V:4]G,2 zA,, |
[V:1][d2D2] z2 |]
[V:2][F2A2] z2 |]
[V:3][F2A,2] z2 |]
[V:4]D,,2 z2 |]

